public/favicon-light.svg

<svg viewBox="0 0 112 71" fill="none" xmlns="http://www.w3.org/2000/svg">
    <path d="M75.9523 0.00305532H36.0477C31.3363 -0.0586189 26.6595 0.813975 22.2888 2.57019C17.9181 4.32641 13.9406 6.93127 10.587 10.2336C7.23344 13.5359 4.57069 17.4699 2.75328 21.8072C0.935866 26.1446 0 30.7989 0 35.5C0 40.2011 0.935866 44.8554 2.75328 49.1928C4.57069 53.5301 7.23344 57.4641 10.587 60.7664C13.9406 64.0687 17.9181 66.6736 22.2888 68.4298C26.6595 70.186 31.3363 71.0586 36.0477 70.9969H75.9523C80.6637 71.0586 85.3405 70.186 89.7112 68.4298C94.0819 66.6736 98.0594 64.0687 101.413 60.7664C104.767 57.4641 107.429 53.5301 109.247 49.1928C111.064 44.8554 112 40.2011 112 35.5C112 30.7989 111.064 26.1446 109.247 21.8072C107.429 17.4699 104.767 13.5359 101.413 10.2336C98.0594 6.93127 94.0819 4.32641 89.7112 2.57019C85.3405 0.813975 80.6637 -0.0586189 75.9523 0.00305532ZM76.1115 61.6484C70.9272 61.6496 65.8589 60.1169 61.5477 57.2441C57.2365 54.3712 53.876 50.2874 51.8913 45.5089C49.9065 40.7305 49.3865 35.4721 50.3972 30.3988C51.4078 25.3255 53.9037 20.6652 57.5692 17.0072C61.2346 13.3493 65.905 10.858 70.9896 9.84842C76.0742 8.83887 81.3447 9.35639 86.1345 11.3356C90.9243 13.3147 95.0183 16.6666 97.8987 20.9673C100.779 25.2681 102.316 30.3244 102.316 35.4969C102.316 42.4317 99.5558 49.0825 94.6416 53.9867C89.7274 58.8908 83.062 61.6468 76.1115 61.6484Z" fill="#231F20" />
    <circle cx="76.5" cy="35.5" r="26.5" fill="#F5F5F5" />
</svg>

<svg xmlns="http://www.w3.org/2000/svg" fill="none" viewBox="0 0 112 71"><path fill="#231F20" d="M75.952.003H36.048a35.652 35.652 0 0 0-13.76 2.567 35.589 35.589 0 0 0-11.701 7.664 35.496 35.496 0 0 0-7.834 11.573 35.43 35.43 0 0 0 0 27.386 35.496 35.496 0 0 0 7.834 11.573 35.589 35.589 0 0 0 11.702 7.664 35.652 35.652 0 0 0 13.759 2.567h39.904c4.712.062 9.389-.811 13.76-2.567a35.589 35.589 0 0 0 11.701-7.664 35.499 35.499 0 0 0 7.834-11.573 35.438 35.438 0 0 0-7.834-38.96A35.589 35.589 0 0 0 89.711 2.57 35.652 35.652 0 0 0 75.952.003Zm.16 61.645a26.254 26.254 0 0 1-14.564-4.404A26.164 26.164 0 0 1 51.89 45.51a26.096 26.096 0 0 1-1.494-15.11 26.132 26.132 0 0 1 7.172-13.392 26.23 26.23 0 0 1 13.42-7.159 26.266 26.266 0 0 1 15.145 1.488A26.198 26.198 0 0 1 97.9 20.967a26.11 26.11 0 0 1-3.257 33.02 26.242 26.242 0 0 1-18.53 7.661Z"/><circle cx="76.5" cy="35.5" r="26.5" fill="#F5F5F5"/></svg>
